icon-themes/breeze_svg/res/recentdoc_remove.svg

<svg viewBox="0 0 24 24" xmlns="http://www.w3.org/2000/svg"><path d="m12 4a7.9999914 7.9999914 0 0 0 -8 8 7.9999914 7.9999914 0 0 0 8 8 7.9999914 7.9999914 0 0 0 8-8 7.9999914 7.9999914 0 0 0 -8-8z" fill="#4d4d4d"/><path d="m8.3535156 7.6464844-.7070312.7070312 3.6464846 3.6464844-3.6464846 3.646484.7070312.707032 3.6464844-3.646485 3.646484 3.646485.707032-.707032-3.646485-3.646484 3.646485-3.6464844-.707032-.7070312-3.646484 3.6464846z" fill="#fff"/></svg>

<svg xmlns="http://www.w3.org/2000/svg" viewBox="0 0 24 24">
 <path 
     style="fill:#4d4d4d" 
     d="M 12 4 A 7.9999914 7.9999914 0 0 0 4 12 A 7.9999914 7.9999914 0 0 0 12 20 A 7.9999914 7.9999914 0 0 0 20 12 A 7.9999914 7.9999914 0 0 0 12 4 z "
     />
 <path 
     style="fill:#ffffff" 
     d="M 8.3535156 7.6464844 L 7.6464844 8.3535156 L 11.292969 12 L 7.6464844 15.646484 L 8.3535156 16.353516 L 12 12.707031 L 15.646484 16.353516 L 16.353516 15.646484 L 12.707031 12 L 16.353516 8.3535156 L 15.646484 7.6464844 L 12 11.292969 L 8.3535156 7.6464844 z "
     />
 </svg>
